src/status/symbolic/battery-caution-charging-symbolic.svg

<svg width="16" height="16" version="1.1" xmlns="http://www.w3.org/2000/svg">
 <path d="m6.834 4-3.334 5h3l-0.75 3h0.41602l3.334-5h-3l0.75-3z" fill="#363636"/>
 <path d="m2 3c-1.108 0-2 0.892-2 2v6c0 1.108 0.892 2 2 2h9c1.108 0 2-0.892 2-2v-6c0-1.108-0.892-2-2-2zm0 1h9c0.554 0 1 0.446 1 1v6c0 0.554-0.446 1-1 1h-9c-0.554 0-1-0.446-1-1v-6c0-0.554 0.446-1 1-1z" fill="#363636"/>
 <path class="success" fill="#33d17a" d="m2.4434 5c-0.24577 0-0.44336 0.24253-0.44336 0.54492v4.9102c0 0.3024 0.19759 0.54492 0.44336 0.54492h1.1133c0.24577 0 0.44336-0.24253 0.44336-0.54492v-0.45508h-0.5c-0.79859-1.711e-4 -1.2749-0.89013-0.83203-1.5547l1.332-1.998v-0.90234c0-0.3024-0.19759-0.54492-0.44336-0.54492h-1.1133z"/>
 <path d="m14 6v4a2 2 0 0 0 2-2 2 2 0 0 0-2-2z" fill="#363636"/>
</svg>

<svg xmlns="http://www.w3.org/2000/svg" width="16" height="16">
    <path fill="#050505" fill-opacity=".7" d="M6.834 4 3.5 9h3l-.75 3h.416L9.5 7h-3l.75-3z"/>
    <path fill="#050505" fill-opacity=".7" d="M2 3C.892 3 0 3.892 0 5v6c0 1.108.892 2 2 2h9c1.108 0 2-.892 2-2V5c0-1.108-.892-2-2-2zm0 1h9c.554 0 1 .446 1 1v6c0 .554-.446 1-1 1H2c-.554 0-1-.446-1-1V5c0-.554.446-1 1-1z"/>
    <path fill="#add49f" d="M2.443 5C2.198 5 2 5.243 2 5.545v4.91c0 .303.198.545.443.545h1.114c.245 0 .443-.242.443-.545V10h-.5a1 1 0 0 1-.832-1.555L4 6.447v-.902C4 5.243 3.802 5 3.557 5H2.443z" class="success"/>
    <path fill="#050505" fill-opacity=".7" d="M14 6v4a2 2 0 0 0 2-2 2 2 0 0 0-2-2z"/>
</svg>
